X:164
T:Up to Your Knees in Sand
R:reel
D:Mary Bergin: Feadoga Stain
Z:id:hn-reel-164
M:C|
K:G
~G3F GABc|dBeB dBAF|DFAF BFAF|DFAF GFEF|
~G3F GABc|dBeB dBA2|Be~e2 dBAF|DEFD ~E3F:|
|:GB~B2 gBeB|FA~A2 FAdA|GB~B2 dBdB|AGFG ~E3F|
GB~B2 gBeB|FA~A2 FAd2|~G3F GBdB|AGFG ~E3F:|

